**harmony	**harte	**kern	**silbe	**rhyme	**timestamp	**phrase	**leadinstrument
*M4/4	*M4/4	*ICvox	*	*	*	*	*
*	*	*VRlead	*	*	*	*	*
*	*	*Hstimme	*	*	*	*	*
*D:	*D:	*C:	*	*	*	*	*
*	*	*clefG2	*	*	*	*	*
1r;	1r	r;	.	.	0	.	r
*	*	*D:	*	*	*	*	*
*	*	*M4/4	*	*	*	*	*
*	*	*clefG2	*	*	*	*	*
1r;	1r	r;	.	.	1.138	.	r
=1	=1	=1	=1	=1	=1	=1	=1
1N	N	4f	Please	.	3.078	.	voice
.	.	4f	please	.	.	.	.
.	.	4f	tell	.	.	.	.
.	.	8f	me	.	.	.	.
.	.	[8g	now	.	.	.	.
=2	=2	=2	=2	=2	=2	=2	=2
1N	N	4g]	_	.	5.018	.	voice
.	.	4r	.	.	.	.	.
.	.	2r	.	.	.	.	.
=3	=3	=3	=3	=3	=3	=3	=3
1N	N	4f	Please	.	6.959	.	voice
.	.	4f	please	.	.	.	.
.	.	4f	tell	.	.	.	.
.	.	8f	me	.	.	.	.
.	.	[8g	now	.	.	.	.
=4	=4	=4	=4	=4	=4	=4	=4
1N	N	4g]	_	.	8.899	.	voice
.	.	4r	.	.	.	.	.
.	.	2r	.	.	.	.	.
=5	=5	=5	=5	=5	=5	=5	=5
1N	N	4f	Please	.	10.84	.	voice
.	.	4f	please	.	.	.	.
.	.	4f	tell	.	.	.	.
.	.	8f	me	.	.	.	.
.	.	[8g	now	.	.	.	.
=6	=6	=6	=6	=6	=6	=6	=6
1N	N	4g]	_	.	12.78	.	voice
.	.	4r	.	.	.	.	.
.	.	2r	.	.	.	.	.
=7	=7	=7	=7	=7	=7	=7	=7
1N	N	4f	Please	.	14.72	.	voice
.	.	4f	please	.	.	.	.
.	.	4f	tell	.	.	.	.
.	.	8f	me	.	.	.	.
.	.	[8g	now	.	.	.	.
=8	=8	=8	=8	=8	=8	=8	=8
1N	N	4g]	_	.	16.418	.	voice
.	.	4r	.	.	.	.	.
.	.	2r	.	.	.	.	.
=9	=9	=9	=9	=9	=9	=9	=9
*>Letter>B	*>Letter>B	*>Letter>B	*>Letter>B	*>Letter>B	*>Letter>B	*>Letter>B	*>Letter>B
*>Label>Intro	*>Label>Intro	*>Label>Intro	*>Label>Intro	*>Label>Intro	*>Label>Intro	*>Label>Intro	*>Label>Intro
2DM	D:maj	1r	.	.	16.661	newline	guitar
2DM	D:maj/b7	.	.	.	17.629	.	guitar
=10	=10	=10	=10	=10	=10	=10	=10
2DM	D:maj	1r	.	.	18.598	.	guitar
2DM	D:maj/b7	.	.	.	19.566	.	guitar
=11	=11	=11	=11	=11	=11	=11	=11
2DM	D:maj	1r	.	.	20.535	.	guitar
2DM	D:maj/b7	.	.	.	21.503	.	guitar
=12	=12	=12	=12	=12	=12	=12	=12
2DM	D:maj	1r	.	.	22.472	.	guitar
2DM	D:maj/b7	.	.	.	23.44	.	guitar
=13	=13	=13	=13	=13	=13	=13	=13
2DM	D:maj	1r	.	.	24.409	newline	guitar
2DM	D:maj/b7	.	.	.	25.379	.	guitar
=14	=14	=14	=14	=14	=14	=14	=14
2DM	D:maj	1r	.	.	26.349	.	guitar
2DM	D:maj/b7	.	.	.	27.319	.	guitar
=15	=15	=15	=15	=15	=15	=15	=15
1GM	G:maj	1r	.	.	28.289	.	guitar
=16	=16	=16	=16	=16	=16	=16	=16
1CM	C:maj	1r	.	.	30.229	.	guitar
=17	=17	=17	=17	=17	=17	=17	=17
2DM	D:maj	1r	.	.	32.17	newline	guitar
2DM	D:maj/b7	.	.	.	33.106	.	guitar
=18	=18	=18	=18	=18	=18	=18	=18
2DM	D:maj	1r	.	.	34.043	.	guitar
2DM	D:maj/b7	.	.	.	34.979	.	guitar
=19	=19	=19	=19	=19	=19	=19	=19
*>Letter>B	*>Letter>B	*>Letter>B	*>Letter>B	*>Letter>B	*>Letter>B	*>Letter>B	*>Letter>B
*>Label>Verse	*>Label>Verse	*>Label>Verse	*>Label>Verse	*>Label>Verse	*>Label>Verse	*>Label>Verse	*>Label>Verse
2DM	D:maj	8r	.	.	35.916	newline	voice
.	.	8A	I	.	.	.	.
.	.	8d	made	.	.	.	.
.	.	16A	a	.	.	.	.
.	.	16c	break	.	.	.	.
2DM	D:maj/b7	8r	.	.	36.882	.	voice
.	.	8c	I	.	.	.	.
.	.	4B	_	.	.	.	.
=20	=20	=20	=20	=20	=20	=20	=20
2DM	D:maj	8c	run	.	37.848	.	voice
.	.	8d	out	.	.	.	.
.	.	8r	.	.	.	.	.
.	.	[8g	yes-	.	.	.	.
2DM	D:maj/b7	8g]	_	.	38.814	.	voice
.	.	8f#	-ter-	.	.	.	.
.	.	4d	-day	A	.	.	.
=21	=21	=21	=21	=21	=21	=21	=21
2DM	D:maj	4r	.	.	39.78	.	voice
.	.	8d	tried	.	.	.	.
.	.	8A	to	.	.	.	.
2DM	D:maj/b7	4c	find	.	40.745	.	voice
.	.	8B	my	.	.	.	.
.	.	[8c	moun-	.	.	.	.
=22	=22	=22	=22	=22	=22	=22	=22
2DM	D:maj	8c]	_	.	41.711	.	voice
.	.	4d	-tain	.	.	.	.
.	.	[8g	hi-	.	.	.	.
2DM	D:maj/b7	8g]	_	.	42.677	.	voice
.	.	8f#	-dea-	.	.	.	.
.	.	[4d	-way	A	.	.	.
=23	=23	=23	=23	=23	=23	=23	=23
1GM	G:maj	4d]	_	.	43.643	newline	voice
.	.	4r	.	.	.	.	.
.	.	8r	.	.	.	.	.
.	.	8d	May-	.	.	.	.
.	.	8A	-be	.	.	.	.
.	.	[8c	next	.	.	.	.
=24	=24	=24	=24	=24	=24	=24	=24
1CM	C:maj	8c]	_	.	45.571	.	voice
.	.	8c	year	.	.	.	.
.	.	4r	.	.	.	.	.
.	.	8B	may-	.	.	.	.
.	.	4B	-be	.	.	.	.
.	.	8B	no	.	.	.	.
=25	=25	=25	=25	=25	=25	=25	=25
2DM	D:maj	4.B	go	.	47.499	.	voice
.	.	[8A	_	.	.	.	.
2DM	D:maj/b7	2A]	_	.	48.462	.	voice
=26	=26	=26	=26	=26	=26	=26	=26
2DM	D:maj	1r	.	.	49.426	.	voice
2DM	D:maj/b7	.	.	.	50.39	.	voice
=27	=27	=27	=27	=27	=27	=27	=27
2DM	D:maj	8r	.	.	51.354	newline	voice
.	.	8a	I	.	.	.	.
.	.	8a	know	.	.	.	.
.	.	8a	you're	.	.	.	.
2DM	D:maj/b7	8a	watch-	.	52.317	.	voice
.	.	4d	-ing	.	.	.	.
.	.	8A	me	.	.	.	.
=28	=28	=28	=28	=28	=28	=28	=28
2DM	D:maj	6c	e-	.	53.28	.	voice
.	.	6c	-ve-	.	.	.	.
.	.	6c	-ry	.	.	.	.
2DM	D:maj/b7	16c	mi-	.	54.243	.	voice
.	.	16c	-nute	.	.	.	.
.	.	4c	of	.	.	.	.
.	.	8c	the	.	.	.	.
=29	=29	=29	=29	=29	=29	=29	=29
2DM	D:maj	4.d	day	A	55.205	.	voice
.	.	8d	yeah	.	.	.	.
2DM	D:maj/b7	4c	_	.	56.168	.	voice
.	.	4r	.	.	.	.	.
=30	=30	=30	=30	=30	=30	=30	=30
2DM	D:maj	2r	.	.	57.131	.	voice
2DM	D:maj/b7	8r	.	.	58.094	.	voice
.	.	8a	I've	.	.	.	.
.	.	8a	seen	.	.	.	.
.	.	8a	the	.	.	.	.
=31	=31	=31	=31	=31	=31	=31	=31
2DM	D:maj	6a	signs	.	59.057	newline	voice
.	.	6a	and	.	.	.	.
.	.	6a	the	.	.	.	.
2DM	D:maj/b7	6a	looks	.	60.021	.	voice
.	.	6d	and	.	.	.	.
.	.	6A	the	.	.	.	.
=32	=32	=32	=32	=32	=32	=32	=32
2DM	D:maj	6c	pic-	.	60.985	.	voice
.	.	6c	-tures	.	.	.	.
.	.	6B	that	.	.	.	.
2DM	D:maj/b7	16c	give	.	61.949	.	voice
.	.	16B	your	.	.	.	.
.	.	4c	game	.	.	.	.
.	.	8c	a-	.	.	.	.
=33	=33	=33	=33	=33	=33	=33	=33
2DM	D:maj	4.d	-way	A	62.913	.	voice
.	.	8d	yeah	.	.	.	.
2DM	D:maj/b7	4c	_	.	63.877	.	voice
.	.	4r	.	.	.	.	.
=34	=34	=34	=34	=34	=34	=34	=34
2DM	D:maj	2r	.	.	64.841	.	voice
2DM	D:maj/b7	8r	.	.	65.805	.	voice
.	.	8d	There's	.	.	.	.
.	.	8d	a	.	.	.	.
.	.	[8g	dream	B	.	.	.
=35	=35	=35	=35	=35	=35	=35	=35
*>Letter>C	*>Letter>C	*>Letter>C	*>Letter>C	*>Letter>C	*>Letter>C	*>Letter>C	*>Letter>C
*>Label>Prechorus	*>Label>Prechorus	*>Label>Prechorus	*>Label>Prechorus	*>Label>Prechorus	*>Label>Prechorus	*>Label>Prechorus	*>Label>Prechorus
1GM	G:maj	4g]	_	.	66.769	newline	voice
.	.	8g	that	.	.	.	.
.	.	[8f	strings	B	.	.	.
.	.	4f]	_	.	.	.	.
.	.	8f	the	.	.	.	.
.	.	[8e	road	C	.	.	.
=36	=36	=36	=36	=36	=36	=36	=36
1CM	C:maj	4e]	_	.	68.69	.	voice
.	.	8r	.	.	.	.	.
.	.	8d	with	.	.	.	.
.	.	8g	bro-	.	.	.	.
.	.	4.g	-ken	.	.	.	.
=37	=37	=37	=37	=37	=37	=37	=37
1DM	D:maj	4f#	glass	.	70.611	.	voice
.	.	8r	.	.	.	.	.
.	.	8f#	for	.	.	.	.
.	.	4e	us	.	.	.	.
.	.	8e	to	.	.	.	.
.	.	[8d	hold	C	.	.	.
=38	=38	=38	=38	=38	=38	=38	=38
1DM	D:maj	4d]	_	.	72.532	.	voice
.	.	4r	.	.	.	.	.
.	.	8r	.	.	.	.	.
.	.	8f	And	.	.	.	.
.	.	8f	I	.	.	.	.
.	.	[8g	cut	.	.	.	.
=39	=39	=39	=39	=39	=39	=39	=39
1GM	G:maj	8g]	_	.	74.453	newline	voice
.	.	4g	so	.	.	.	.
.	.	[8f	far	.	.	.	.
.	.	4f]	_	.	.	.	.
.	.	8f	be-	.	.	.	.
.	.	[8e	-fore	.	.	.	.
=40	=40	=40	=40	=40	=40	=40	=40
1CM	C:maj	4e]	_	.	76.385	.	voice
.	.	4e	I	.	.	.	.
.	.	4d	had	.	.	.	.
.	.	8d	to	.	.	.	.
.	.	[8c	say	A	.	.	.
=41	=41	=41	=41	=41	=41	=41	=41
1FM	F:maj	1c]	_	.	78.316	.	voice
=42	=42	=42	=42	=42	=42	=42	=42
1CM	C:maj	1r	.	.	80.247	.	voice
=43	=43	=43	=43	=43	=43	=43	=43
*>Letter>D	*>Letter>D	*>Letter>D	*>Letter>D	*>Letter>D	*>Letter>D	*>Letter>D	*>Letter>D
*>Label>Chorus	*>Label>Chorus	*>Label>Chorus	*>Label>Chorus	*>Label>Chorus	*>Label>Chorus	*>Label>Chorus	*>Label>Chorus
1DM	D:maj	4d	Please	.	82.179	newline	.
.	.	4d	please	.	.	.	.
.	.	8d	tell	.	.	.	.
.	.	4f	me	.	.	.	.
.	.	[8g	now	.	.	.	.
=44	=44	=44	=44	=44	=44	=44	=44
2FM	F:maj	4g]	_	.	84.101	.	.
.	.	4r	.	.	.	.	.
2CM	C:maj	8r	.	.	85.062	.	.
.	.	8g	is	.	.	.	.
.	.	4g	there	.	.	.	.
=45	=45	=45	=45	=45	=45	=45	=45
1AM	A:5	4a	some-	.	86.023	.	.
.	.	4g	-thing	.	.	.	.
.	.	8f	I	.	.	.	.
.	.	4f	should	.	.	.	.
.	.	[8g	know	C	.	.	.
=46	=46	=46	=46	=46	=46	=46	=46
2GM	G:sus4	4g]	_	.	87.944	.	.
.	.	4r	.	.	.	.	.
2GM	G:maj	8r	.	.	88.905	.	.
.	.	8d	Is	.	.	.	.
.	.	4d	there	.	.	.	.
=47	=47	=47	=47	=47	=47	=47	=47
1DM	D:maj	4d	some-	.	89.866	.	.
.	.	4d	-thing	.	.	.	.
.	.	8d	I	.	.	.	.
.	.	4f	should	.	.	.	.
.	.	[8g	say	A	.	.	.
=48	=48	=48	=48	=48	=48	=48	=48
2FM	F:maj	4g]	_	.	91.788	.	.
.	.	4r	.	.	.	.	.
2CM	C:maj	4r	.	.	92.749	.	.
.	.	8f	that	.	.	.	.
.	.	8g	will	.	.	.	.
=49	=49	=49	=49	=49	=49	=49	=49
1AM	A:5	4a	make	.	93.71	.	.
.	.	4g	you	.	.	.	.
.	.	8f	come	.	.	.	.
.	.	4f	my	.	.	.	.
.	.	[8g	way	A	.	.	.
=50	=50	=50	=50	=50	=50	=50	=50
2GM	G:sus4	4g]	_	.	95.632	.	.
.	.	4r	.	.	.	.	.
2GM	G:maj	8r	.	.	96.593	.	.
.	.	8f	Do	.	.	.	.
.	.	8f	you	.	.	.	.
.	.	[8g	feel	.	.	.	.
=51	=51	=51	=51	=51	=51	=51	=51
1GM	G:maj	4g]	_	.	97.554	newline	.
.	.	8g	the	.	.	.	.
.	.	[8f	same	.	.	.	.
.	.	4f]	_	.	.	.	.
.	.	8f	cause	.	.	.	.
.	.	[8e	you	.	.	.	.
=52	=52	=52	=52	=52	=52	=52	=52
1CM	C:maj	4e]	_	.	99.479	.	.
.	.	4e	don't	.	.	.	.
.	.	8d	let	.	.	.	.
.	.	4c	it	.	.	.	.
.	.	[8d	show	C	.	.	.
=53	=53	=53	=53	=53	=53	=53	=53
2DM	D:maj	2.d]	_	.	101.404	.	.
2DM	D:maj/b7	.	.	.	102.367	.	.
.	.	4r	.	.	.	.	.
=54	=54	=54	=54	=54	=54	=54	=54
2DM	D:maj	1r	.	.	103.329	.	.
2DM	D:maj/b7	.	.	.	104.291	.	.
=55	=55	=55	=55	=55	=55	=55	=55
2DM	D:maj	1r	.	.	105.254	.	.
2DM	D:maj/b7	.	.	.	106.216	.	.
=56	=56	=56	=56	=56	=56	=56	=56
2DM	D:maj	1r	.	.	107.179	.	.
2DM	D:maj/b7	.	.	.	108.141	.	.
=57	=57	=57	=57	=57	=57	=57	=57
*>Letter>B	*>Letter>B	*>Letter>B	*>Letter>B	*>Letter>B	*>Letter>B	*>Letter>B	*>Letter>B
*>Label>Verse	*>Label>Verse	*>Label>Verse	*>Label>Verse	*>Label>Verse	*>Label>Verse	*>Label>Verse	*>Label>Verse
2DM	D:maj	4r	.	.	109.104	newline	.
.	.	8d	Peo-	.	.	.	.
.	.	8A	-ple	.	.	.	.
2DM	D:maj/b7	4c	stare	.	110.074	.	.
.	.	8B	and	.	.	.	.
.	.	[8c	cross	.	.	.	.
=58	=58	=58	=58	=58	=58	=58	=58
2DM	D:maj	8c]	_	.	111.045	.	.
.	.	4d	the	.	.	.	.
.	.	[8g	road	.	.	.	.
2DM	D:maj/b7	8g]	_	.	112.016	.	.
.	.	8f#	from	.	.	.	.
.	.	4d	me	.	.	.	.
=59	=59	=59	=59	=59	=59	=59	=59
2DM	D:maj	8r	.	.	112.987	.	.
.	.	8A	And	.	.	.	.
.	.	16d	jun-	.	.	.	.
.	.	16A	-gle	.	.	.	.
.	.	[8c	drums	.	.	.	.
2DM	D:maj/b7	8c]	_	.	113.958	.	.
.	.	8c	they	.	.	.	.
.	.	4B	all	.	.	.	.
=60	=60	=60	=60	=60	=60	=60	=60
2DM	D:maj	4c	clear	.	114.929	.	.
.	.	8d	the	.	.	.	.
.	.	[8g	way	.	.	.	.
2DM	D:maj/b7	8g]	_	.	115.9	.	.
.	.	8f#	for	.	.	.	.
.	.	4d	me	.	.	.	.
=61	=61	=61	=61	=61	=61	=61	=61
1GM	G:maj	4r	.	.	116.871	newline	.
.	.	8d	Can	.	.	.	.
.	.	8A	you	.	.	.	.
.	.	8d	read	.	.	.	.
.	.	4d	my	.	.	.	.
.	.	[8c	mind	.	.	.	.
=62	=62	=62	=62	=62	=62	=62	=62
1CM	C:maj	8c]	_	.	118.774	.	.
.	.	4c	can	.	.	.	.
.	.	8B	you	.	.	.	.
.	.	8c	see	.	.	.	.
.	.	4B	in	.	.	.	.
.	.	8B	the	.	.	.	.
=63	=63	=63	=63	=63	=63	=63	=63
2DM	D:maj	4.B	snow	C	120.678	.	.
.	.	[8A	_	.	.	.	.
2DM	D:maj/b7	2A]	_	.	121.63	.	.
=64	=64	=64	=64	=64	=64	=64	=64
2DM	D:maj	1r	.	.	122.582	.	.
2DM	D:maj/b7	.	.	.	123.534	.	.
=65	=65	=65	=65	=65	=65	=65	=65
2DM	D:maj	8r	.	.	124.486	newline	.
.	.	8a	And	.	.	.	.
.	.	16a	fi-	.	.	.	.
.	.	16a	-re-	.	.	.	.
.	.	8a	-y	.	.	.	.
2DM	D:maj/b7	6a	de-	.	125.454	.	.
.	.	6d	-mons	.	.	.	.
.	.	6A	all	.	.	.	.
=66	=66	=66	=66	=66	=66	=66	=66
2DM	D:maj	6c	dance	.	126.421	.	.
.	.	6c	when	.	.	.	.
.	.	6B	you	.	.	.	.
2DM	D:maj/b7	6c	walk	.	127.389	.	.
.	.	6B	through	.	.	.	.
.	.	6c	that	.	.	.	.
=67	=67	=67	=67	=67	=67	=67	=67
2DM	D:maj	4.d	door	C	128.357	.	.
.	.	16c	_	.	.	.	.
.	.	16d	_	.	.	.	.
2DM	D:maj/b7	2c	_	.	129.325	.	.
=68	=68	=68	=68	=68	=68	=68	=68
2DM	D:maj	2r	.	.	130.293	.	.
2DM	D:maj/b7	8r	.	.	131.261	.	.
.	.	8a	Don't	.	.	.	.
.	.	8a	say	.	.	.	.
.	.	8a	you're	.	.	.	.
=69	=69	=69	=69	=69	=69	=69	=69
2DM	D:maj	8a	ea-	.	132.228	newline	.
.	.	4a	-sy	.	.	.	.
.	.	[8a	on	.	.	.	.
2DM	D:maj/b7	8a]	_	.	133.185	.	.
.	.	[8d	me	.	.	.	.
.	.	8d]	_	.	.	.	.
.	.	8r	.	.	.	.	.
=70	=70	=70	=70	=70	=70	=70	=70
2DM	D:maj	16c	you're	.	134.142	.	.
.	.	16B	a-	.	.	.	.
.	.	[8c	-bout	.	.	.	.
.	.	8c]	_	.	.	.	.
.	.	8c	as	.	.	.	.
2DM	D:maj/b7	8c	ea-	.	135.098	.	.
.	.	8c	-sy	.	.	.	.
.	.	8c	as	.	.	.	.
.	.	8c	a	.	.	.	.
=71	=71	=71	=71	=71	=71	=71	=71
2DM	D:maj	8d	nu-	.	136.055	.	.
.	.	8d	-cle-	.	.	.	.
.	.	8d	-ar	.	.	.	.
.	.	[8c	war	C	.	.	.
2DM	D:maj/b7	4c]	_	.	137.012	.	.
.	.	4r	.	.	.	.	.
=72	=72	=72	=72	=72	=72	=72	=72
2DM	D:maj	2r	.	.	137.968	.	.
2DM	D:maj/b7	8r	.	.	138.925	.	.
.	.	8e	There's	.	.	.	.
.	.	8f#	a	.	.	.	.
.	.	[8g	dream	B	.	.	.
=73	=73	=73	=73	=73	=73	=73	=73
*>Letter>C	*>Letter>C	*>Letter>C	*>Letter>C	*>Letter>C	*>Letter>C	*>Letter>C	*>Letter>C
*>Label>Prechorus	*>Label>Prechorus	*>Label>Prechorus	*>Label>Prechorus	*>Label>Prechorus	*>Label>Prechorus	*>Label>Prechorus	*>Label>Prechorus
1GM	G:maj	4g]	_	.	139.882	newline	.
.	.	8g	that	.	.	.	.
.	.	[8f	strings	B	.	.	.
.	.	4f]	_	.	.	.	.
.	.	8f	the	.	.	.	.
.	.	[8e	road	C	.	.	.
=74	=74	=74	=74	=74	=74	=74	=74
1CM	C:maj	4e]	_	.	141.819	.	.
.	.	8r	.	.	.	.	.
.	.	8d	with	.	.	.	.
.	.	8g	bro-	.	.	.	.
.	.	4.g	-ken	.	.	.	.
=75	=75	=75	=75	=75	=75	=75	=75
1DM	D:maj	4f#	glass	.	143.756	.	.
.	.	8r	.	.	.	.	.
.	.	8f#	for	.	.	.	.
.	.	4e	us	.	.	.	.
.	.	8e	to	.	.	.	.
.	.	[8d	hold	C	.	.	.
=76	=76	=76	=76	=76	=76	=76	=76
1DM	D:maj	4d]	_	.	145.694	.	.
.	.	4r	.	.	.	.	.
.	.	8r	.	.	.	.	.
.	.	8f	And	.	.	.	.
.	.	8f	I	.	.	.	.
.	.	[8g	cut	.	.	.	.
=77	=77	=77	=77	=77	=77	=77	=77
1GM	G:maj	8g]	_	.	147.631	newline	.
.	.	4g	so	.	.	.	.
.	.	[8f	far	.	.	.	.
.	.	4f]	_	.	.	.	.
.	.	8f	be-	.	.	.	.
.	.	[8e	-fore	.	.	.	.
=78	=78	=78	=78	=78	=78	=78	=78
1CM	C:maj	4e]	_	.	149.58	.	.
.	.	4e	I	.	.	.	.
.	.	4d	had	.	.	.	.
.	.	8d	to	.	.	.	.
.	.	[8c	say	.	.	.	.
=79	=79	=79	=79	=79	=79	=79	=79
1FM	F:maj	1c]	_	.	151.529	.	.
=80	=80	=80	=80	=80	=80	=80	=80
1CM	C:maj	1r	.	.	153.479	.	.
=81	=81	=81	=81	=81	=81	=81	=81
*>Letter>D	*>Letter>D	*>Letter>D	*>Letter>D	*>Letter>D	*>Letter>D	*>Letter>D	*>Letter>D
*>Label>Chorus	*>Label>Chorus	*>Label>Chorus	*>Label>Chorus	*>Label>Chorus	*>Label>Chorus	*>Label>Chorus	*>Label>Chorus
1DM	D:maj	4d	Please	.	155.428	newline	.
.	.	4d	please	.	.	.	.
.	.	8d	tell	.	.	.	.
.	.	4f	me	.	.	.	.
.	.	[8g	now	.	.	.	.
=82	=82	=82	=82	=82	=82	=82	=82
2FM	F:maj	4g]	_	.	157.337	.	.
.	.	4r	.	.	.	.	.
2CM	C:maj	8r	.	.	158.292	.	.
.	.	8g	is	.	.	.	.
.	.	4g	there	.	.	.	.
=83	=83	=83	=83	=83	=83	=83	=83
1AM	A:5	4a	some-	.	159.247	.	.
.	.	4g	-thing	.	.	.	.
.	.	8f	I	.	.	.	.
.	.	4f	should	.	.	.	.
.	.	[8g	know	C	.	.	.
=84	=84	=84	=84	=84	=84	=84	=84
2GM	G:sus4	4g]	_	.	161.156	.	.
.	.	4r	.	.	.	.	.
2GM	G:maj	8r	.	.	162.11	.	.
.	.	8d	Is	.	.	.	.
.	.	4d	there	.	.	.	.
=85	=85	=85	=85	=85	=85	=85	=85
1DM	D:maj	4d	some-	.	163.065	.	.
.	.	4d	-thing	.	.	.	.
.	.	8d	I	.	.	.	.
.	.	4f	should	.	.	.	.
.	.	[8g	say	A	.	.	.
=86	=86	=86	=86	=86	=86	=86	=86
2FM	F:maj	4g]	_	.	164.974	.	.
.	.	4r	.	.	.	.	.
2CM	C:maj	4r	.	.	165.929	.	.
.	.	8f	that	.	.	.	.
.	.	8g	will	.	.	.	.
=87	=87	=87	=87	=87	=87	=87	=87
1AM	A:5	4a	make	.	166.884	.	.
.	.	4g	you	.	.	.	.
.	.	8f	come	.	.	.	.
.	.	4f	my	.	.	.	.
.	.	[8g	way	A	.	.	.
=88	=88	=88	=88	=88	=88	=88	=88
2GM	G:sus4	4g]	_	.	168.793	.	.
.	.	4r	.	.	.	.	.
2GM	G:maj	8r	.	.	169.747	.	.
.	.	8f	Do	.	.	.	.
.	.	8f	you	.	.	.	.
.	.	[8g	feel	.	.	.	.
=89	=89	=89	=89	=89	=89	=89	=89
1GM	G:maj	4g]	_	.	170.702	newline	voice
.	.	8g	the	.	.	.	.
.	.	[8f	same	A	.	.	.
.	.	4f]	_	.	.	.	.
.	.	8f	cause	.	.	.	.
.	.	[8e	you	.	.	.	.
=90	=90	=90	=90	=90	=90	=90	=90
1CM	C:maj	4e]	_	.	172.625	.	voice
.	.	4e	don't	.	.	.	.
.	.	8d	let	.	.	.	.
.	.	4c	it	.	.	.	.
.	.	[8d	show	C	.	.	.
=91	=91	=91	=91	=91	=91	=91	=91
2DM	D:maj	2.d]	_	.	174.549	.	voice
2DM	D:maj/b7	.	.	.	175.51	.	voice
.	.	4r	.	.	.	.	.
=92	=92	=92	=92	=92	=92	=92	=92
2DM	D:maj	1r	.	.	176.472	.	voice
2DM	D:maj/b7	.	.	.	177.433	.	voice
=93	=93	=93	=93	=93	=93	=93	=93
*>Letter>E	*>Letter>E	*>Letter>E	*>Letter>E	*>Letter>E	*>Letter>E	*>Letter>E	*>Letter>E
*>Label>Interlude	*>Label>Interlude	*>Label>Interlude	*>Label>Interlude	*>Label>Interlude	*>Label>Interlude	*>Label>Interlude	*>Label>Interlude
1Bm	B:min	1r	.	.	178.395	newline	synthesizer
=94	=94	=94	=94	=94	=94	=94	=94
1CM	C:maj	1r	.	.	180.326	.	synthesizer
=95	=95	=95	=95	=95	=95	=95	=95
1DM	D:maj	1r	.	.	182.258	.	synthesizer
=96	=96	=96	=96	=96	=96	=96	=96
1Em	E:min	1r	.	.	184.189	.	synthesizer
=97	=97	=97	=97	=97	=97	=97	=97
1Bm	B:min	1r	.	.	186.121	.	synthesizer
=98	=98	=98	=98	=98	=98	=98	=98
1CM	C:maj	1r	.	.	188.052	.	synthesizer
=99	=99	=99	=99	=99	=99	=99	=99
1DM	D:maj	1r	.	.	189.983	.	synthesizer
=100	=100	=100	=100	=100	=100	=100	=100
1Em	E:min	1r	.	.	191.915	.	synthesizer
=101	=101	=101	=101	=101	=101	=101	=101
1Bm	B:min	1r	.	.	193.846	newline	synthesizer
=102	=102	=102	=102	=102	=102	=102	=102
1CM	C:maj	1r	.	.	195.763	.	synthesizer
=103	=103	=103	=103	=103	=103	=103	=103
1DM	D:maj	1r	.	.	197.68	.	synthesizer
=104	=104	=104	=104	=104	=104	=104	=104
1CM	C:maj	1r	.	.	199.596	.	synthesizer
=105	=105	=105	=105	=105	=105	=105	=105
1CM	C:maj	1r	.	.	201.513	.	synthesizer
=106	=106	=106	=106	=106	=106	=106	=106
*>Letter>D2	*>Letter>D2	*>Letter>D2	*>Letter>D2	*>Letter>D2	*>Letter>D2	*>Letter>D2	*>Letter>D2
*>Label>Outro	*>Label>Outro	*>Label>Outro	*>Label>Outro	*>Label>Outro	*>Label>Outro	*>Label>Outro	*>Label>Outro
1DM	D:sus4(b7)	4d	Please	.	203.43	newline	voice
.	.	4d	please	.	.	.	.
.	.	8d	tell	.	.	.	.
.	.	4f	me	.	.	.	.
.	.	[8g	now	.	.	.	.
=107	=107	=107	=107	=107	=107	=107	=107
2GM	G:maj	4g]	_	.	205.351	.	voice
.	.	4r	.	.	.	.	.
2CM	C:maj	8r	.	.	206.312	.	voice
.	.	8g	is	.	.	.	.
.	.	4g	there	.	.	.	.
=108	=108	=108	=108	=108	=108	=108	=108
1DM	D:sus4(b7)	4a	some-	.	207.272	.	voice
.	.	4g	-thing	.	.	.	.
.	.	8f	I	.	.	.	.
.	.	4f	should	.	.	.	.
.	.	[8g	know	C	.	.	.
=109	=109	=109	=109	=109	=109	=109	=109
2GM	G:maj	4g]	_	.	209.194	.	voice
.	.	4r	.	.	.	.	.
2CM	C:maj	8r	.	.	210.154	.	voice
.	.	8d	Is	.	.	.	.
.	.	4d	there	.	.	.	.
=110	=110	=110	=110	=110	=110	=110	=110
1DM	D:sus4(b7)	4d	some-	.	211.115	.	voice
.	.	4d	-thing	.	.	.	.
.	.	8d	I	.	.	.	.
.	.	4f	should	.	.	.	.
.	.	[8g	say	A	.	.	.
=111	=111	=111	=111	=111	=111	=111	=111
2GM	G:maj	4g]	_	.	213.036	.	voice
.	.	4r	.	.	.	.	.
2CM	C:maj	4r	.	.	213.997	.	voice
.	.	8f	that	.	.	.	.
.	.	8g	will	.	.	.	.
=112	=112	=112	=112	=112	=112	=112	=112
1DM	D:sus4(b7)	4a	make	.	214.957	.	voice
.	.	4g	you	.	.	.	.
.	.	8f	come	.	.	.	.
.	.	4f	my	.	.	.	.
.	.	[8g	way	A	.	.	.
=113	=113	=113	=113	=113	=113	=113	=113
2GM	G:maj	4g]	_	.	216.879	.	voice
.	.	4r	.	.	.	.	.
2CM	C:maj	2r	.	.	217.839	.	voice
=114	=114	=114	=114	=114	=114	=114	=114
1DM	D:sus4(b7)	4d	Please	.	218.8	.	voice
.	.	4d	please	.	.	.	.
.	.	4d	tell	.	.	.	.
.	.	8f	me	.	.	.	.
.	.	[8g	now	.	.	.	.
=115	=115	=115	=115	=115	=115	=115	=115
2GM	G:maj	4g]	_	.	220.721	.	voice
.	.	4r	.	.	.	.	.
2CM	C:maj	4r	.	.	221.682	.	voice
.	.	8f	Can	.	.	.	.
.	.	8g	you	.	.	.	.
=116	=116	=116	=116	=116	=116	=116	=116
1DM	D:sus4(b7)	4a	see	.	222.643	.	voice
.	.	4g	what	.	.	.	.
.	.	8f	makes	.	.	.	.
.	.	4f	me	.	.	.	.
.	.	[8g	blow	C	.	.	.
=117	=117	=117	=117	=117	=117	=117	=117
2GM	G:maj	4g]	_	.	224.564	.	voice
.	.	4r	.	.	.	.	.
2CM	C:maj	4r	.	.	225.525	.	voice
.	.	8d	Can	.	.	.	.
.	.	8c	you	.	.	.	.
=118	=118	=118	=118	=118	=118	=118	=118
1DM	D:sus4(b7)	4d	see	.	226.485	.	voice
.	.	4d	how	.	.	.	.
.	.	8d	much	.	.	.	.
.	.	4f	I'd	.	.	.	.
.	.	[8g	die	D	.	.	.
=119	=119	=119	=119	=119	=119	=119	=119
2GM	G:maj	4g]	_	.	228.406	.	voice
.	.	4r	.	.	.	.	.
2CM	C:maj	4r	.	.	229.367	.	voice
.	.	8f	Ever-	.	.	.	.
.	.	8g	-y	.	.	.	.
=120	=120	=120	=120	=120	=120	=120	=120
1DM	D:sus4(b7)	4a	time	.	230.328	.	voice
.	.	4g	it	.	.	.	.
.	.	8f	pass-	.	.	.	.
.	.	4f	-es	.	.	.	.
.	.	[8g	by	D	.	.	.
=121	=121	=121	=121	=121	=121	=121	=121
2GM	G:maj	4g]	_	.	232.249	.	voice
.	.	4r	.	.	.	.	.
2CM	C:maj	2r	.	.	233.21	.	voice
=122	=122	=122	=122	=122	=122	=122	=122
1DM	D:sus4(b7)	4d	Please	.	234.17	newline	fadeout voice
.	.	4d	please	.	.	.	.
.	.	4d	tell	.	.	.	.
.	.	8f	me	.	.	.	.
.	.	[8g	now	.	.	.	.
=123	=123	=123	=123	=123	=123	=123	=123
2GM	G:maj	4g]	_	.	235.964	.	fadeout voice
.	.	4r	.	.	.	.	.
2CM	C:maj	4r	.	.	236.862	.	fadeout voice
.	.	8f	What	.	.	.	.
.	.	8g	it	.	.	.	.
=124	=124	=124	=124	=124	=124	=124	=124
1DM	D:sus4(b7)	4a	takes	.	237.759	.	fadeout voice
.	.	4g	to	.	.	.	.
.	.	8f	make	.	.	.	.
.	.	4f	it	.	.	.	.
.	.	[8g	show	C	.	.	.
=125	=125	=125	=125	=125	=125	=125	=125
2GM	G:maj	4g]	_	.	239.553	.	fadeout voice
.	.	4r	.	.	.	.	.
2CM	C:maj	4r	.	.	240.45	.	fadeout voice
.	.	8d	Is	.	.	.	.
.	.	8c	there	.	.	.	.
=126	=126	=126	=126	=126	=126	=126	=126
1DM	D:sus4(b7)	4d	some-	.	241.347	.	fadeout voice
.	.	4d	-thing	.	.	.	.
.	.	8d	I	.	.	.	.
.	.	4f	should	.	.	.	.
.	.	[8g	know	C	.	.	.
=127	=127	=127	=127	=127	=127	=127	=127
2GM	G:maj	4g]	_	.	243.141	.	fadeout voice
.	.	4r	.	.	.	.	.
2CM	C:maj	4r	.	.	244.038	.	fadeout voice
.	.	8f	Is	.	.	.	.
.	.	8g	there	.	.	.	.
=128	=128	=128	=128	=128	=128	=128	=128
1DM	D:sus4(b7)	4a	some-	.	244.935	.	fadeout voice
.	.	4g	-thing	.	.	.	.
.	.	8f	I	.	.	.	.
.	.	4f	should	.	.	.	.
.	.	[8g	know	C	.	.	.
=129	=129	=129	=129	=129	=129	=129	=129
2GM	G:maj	4g]	_	.	246.729	.	fadeout voice
.	.	4r	.	.	.	.	.
2CM	C:maj	2r	.	.	247.626	.	fadeout voice
1r;	1r	r;	.	.	248.523	.	r
1r;	1r	r;	.	.	250.41	.	r
*-	*-	*-	*-	*-	*-	*-	*-
!!!BillboardChartDate: 1983/09/10
!!!BillboardPeak: 4
!!!BillboardWeeksOnChart: 17
!!!COC: Duran Duran
!!!ENC: Nathaniel Condit-Schultz
!!!EST: Awating manual error checking and editing.
!!!OTL: Is There Something I Should Know
!!!RDF**chordsym: original McGill chord annotation + (implied pitch class set, with bass pitch in first position)
!!!RDF**harmony: **recip + pitch class of root + harmonic quality
!!!RDF**leadinstrument: original McGill primary instrumentation annotation
!!!RDF**phrase: newline = linebreak in original McGill transcription
!!!RDF**timestamp: McGill audio timestamp in seconds
!!!RDT: 2017/01/12/
!!!SampleActualRank: 45
!!!SampleID#: 1043
!!!SampleTargetRank: 46
!!!MBID: 311eb9c2-6134-4ec0-afa0-f9da9cc2a3c6
